X: 10458
T: Donegal Traveller, The
R: reel
M: 4/4
K: Cmajor
|:c2Gc EcGc|(3ccc ec dcAB|c2Gc EcGE|FDGF ECEG|
c2Gc EcGc|(3ccc ec dcAg|fedB cBAG|1 ABcd edcB:|2 ABcd ecef||
|:(3gbg eg cgeg|cgef gdBd|(3gbg eg cgeg|fagf ecef|
(3gbg eg cgeg|cgef gdBd|agfe fede|1 fagf ecef:|2 fagf ec~c2||
|:ec(3ccc acgc|ec(3ccc AcGc|ec(3ccc acgc|fagf ec~c2|
ec(3ccc acgc|ec(3ccc Bcdf|agfe fede|1 fagf ec~c2:|2 fagf edcB||

